X:9578
T:Life Guards March,The.(Secondo). TLY.087
M:4/4
L:1/8
S:Wm.Tildesley,Swinton,Lancs.1860s.
R:March
O:England.
A:Lancashire.
N:Comment at end of 'Just Play this Gallay (sic)
H:1860.
Z:vmp.Taz Tarry.
K:G
z2| z4 z2 D2|G2 GG GBAc|Bedc BAGF|G2GGG2 z2|z4 z2 D2|!
G2 GG GBAc|Bedc BAGF|G2GGG2:|
|:z2|B2BB B2 AG| F2FF F2GA|!
 B2BB B2 AG| F2 FFF2 GA| BGGB BGGB| BGGB AFFA|
GDDG GDDG |!
F2 FFF2 z2|z4 z2 D2|G2 GG GBAc|Bedc BAGF|G2GGG2:|]
% Output from ABC2Win  Version 2.1 k pre2 on 06/07/2000


